X:1
T:Title
%%score { 1 | ( 2 3 ) }
L:1/8
M:3/4
K:Db
V:1 treble nm="Grand Piano"
V:2 bass 
V:3 bass 
V:1
 z2 z2[Q:1/4=112] DE | F2 F2 F2 | D4 F[EG] | [FA]2 [FA]2 [FA]2 | [DF]4 [FA][FA] | B2 B2 B2 | %6
 [GB]2 [FA]2 [DF]2 | [DF]2 [CE]2 [CE]2 | [CE]4 [CE][DF] | [EG]2 [EG]2 [EG]2 |[M:2/4] [EG]4 | %11
[M:1/4] GB |[M:3/4] [GB]2 [FA]2 [DF]2 | [FA]4 [FA][FA] | [GB]2 [FA]2 [A,DF]2 | %15
 [G,CE]2 [F,D]2 [G,CE]2 | [F,D]6- | [F,D]4 z2 | [DFA]2 [Fd]2 [Gc]2 | [Ad]4 [Ad][Ae] | %20
 [Af]2 [Ad]2 [GB]2 | [FA]4 [FA][EG] | [DF][EG] [FA][GB] [Ec][Fd] | [Ad]2 [Gc]2 d2 | e6- | e4 z2 | %26
 [FA]2 [Fd]2 [Gc]2 | [Ad]4 [Ad][Ae] | [Af]2 [Ad]2 [GB]2 | [FA]4 [FA][EG] | %30
 [DF][EG] [FA][GB] [Ec]d |[M:7/8] e2 B3 B2 |[M:3/4] A2 d2 [Gc]2 |[M:2/4] [Fd]4 |] %34
V:2
 z2 z2 [D,F,][D,G,D] | [D,A,D]2 [D,A,D]2 [D,A,D]2 | [D,F,]4 [D,A,D][D,A,] | [D,D]2 [D,D]2 [D,D]2 | %4
 [D,A,]4 [D,D][D,D] | [G,DG]2 [G,DG]2 [G,DG]2 | [D,D]2 [D,D]2 [D,A,]2 | %7
 [A,,A,]2 [A,,A,]2 [A,,A,]2 | [A,,A,]4 [A,,A,][A,,A,] | [A,,A,]2 [A,,A,]2 [A,,A,]2 | %10
[M:2/4] [A,,A,]4 |[M:1/4][K:treble] [A,E][A,CG] |[M:3/4][K:bass] [D,D]2 [D,D]2 [D,A,]2 | %13
 [D,D]4 [D,D][D,D] | [D,D]2 [D,D]2 D,2 | A,,2 A,,2 A,,2 | D,6- | D,4 z2 | D,2 [D,A,]2 [E,A,]2 | %19
 [F,A,]4 [F,A,][A,C] | [D,D]2 [F,D]2 [G,D]2 | [D,D]4 [D,A,][D,A,] | [D,A,]2 [D,D]2 [D,A,]2 | %23
 [F,A,]2 [E,A,]2 [D,A,]2 | [A,CA]6- | [A,CA]4 z2 | [D,D]2 [D,A,]2 [E,A,]2 | [F,A,]4 [F,A,][A,C] | %28
 [D,D]2 [F,D]2 [G,D]2 | [D,D]4 [D,A,][D,A,] | [D,A,]2 [D,D]2 z[K:treble] F | %31
[M:7/8] [G,B,G]2 [G,DG]3 [=G,D_F]2 |[M:3/4] [A,DF]2 [A,F]2[K:bass] [A,,A,]2 |[M:2/4] [D,A,]4 |] %34
V:3
 x6 | x6 | x6 | x6 | x6 | x6 | x6 | x6 | x6 | x6 |[M:2/4] x4 |[M:1/4][K:treble] x2 | %12
[M:3/4][K:bass] x6 | x6 | x6 | x6 | x6 | x6 | x6 | x6 | x6 | x6 | x6 | x6 | x6 | x6 | x6 | x6 | %28
 x6 | x6 | z2 z2 [D,D]2[K:treble] |[M:7/8] x7 |[M:3/4] x4[K:bass] x2 |[M:2/4] x4 |] %34

